packages/sources/icons/src/vitamix/checkbox-multiple-line.svg

<svg width="16" height="16" viewBox="0 0 16 16" fill="none" xmlns="http://www.w3.org/2000/svg">
<path fill-rule="evenodd" clip-rule="evenodd" d="M4.66667 1.99999V4.66666H2.00667C1.63467 4.66666 1.33534 4.96733 1.33534 5.338L1.33334 13.9953C1.33316 14.1734 1.40383 14.3443 1.52977 14.4702C1.65571 14.5962 1.82657 14.6668 2.00467 14.6667H10.662C11.034 14.6667 11.3333 14.366 11.3333 13.9953V11.3333H14C14.3682 11.3333 14.6667 11.0349 14.6667 10.6667V1.99999C14.6667 1.63181 14.3682 1.33333 14 1.33333H5.33334C4.96515 1.33333 4.66667 1.63181 4.66667 1.99999ZM10.662 4.66666H6V2.66666H13.3333V9.99999H11.3333V5.33799C11.3333 4.96599 11.0327 4.66666 10.662 4.66666ZM10 5.99999H2.66867L2.66667 13.3333H10V5.99999ZM3.31134 9.64268L5.66867 12L9.43934 8.22868L8.49667 7.28601L5.66867 10.1147L4.25401 8.70001L3.31134 9.64268Z" fill="#001018"/>
</svg>

<svg width="16" height="16" fill="none" xmlns="http://www.w3.org/2000/svg"><path fill-rule="evenodd" clip-rule="evenodd" d="M4.667 2v2.667h-2.66a.67.67 0 0 0-.672.671l-.002 8.657a.67.67 0 0 0 .672.672h8.657a.67.67 0 0 0 .671-.672v-2.662H14a.667.667 0 0 0 .667-.666V2A.667.667 0 0 0 14 1.333H5.333A.667.667 0 0 0 4.667 2zm5.995 2.667H6v-2h7.333V10h-2V5.338a.67.67 0 0 0-.671-.671zM10 6H2.669l-.002 7.333H10V6zM3.311 9.643 5.67 12l3.77-3.771-.942-.943-2.828 2.829L4.254 8.7l-.943.943z" fill="#001018"/></svg>
